X:1     %Music
T:Up! Good Christen Folk   
B:Singing Together, Autumn 1973, BBC Publications
F:http://www.folkinfo.org/songs
M:4/4     %Meter
L:1/8     %
K:D
D2 F2 A4 |GABc A4 |d2 c2 A2 F2 |GF E2 D4 |:
w:Ding-dong-ding: Ding-a-dong-a-ding: Ding-ding, ding-dong: Ding-a-dong ding 
A2 A2 B2 A2 |d2 e2 c2 B2 |A2 c2 d2 A2 |(F4 A2 B2 | A2 G2) F4 |
w:Up! Good Chris-ten Folk and lis-ten How the mer-ry Church__ bells ring. 
A2 A2 F2 E2 |D2 D2 A2 A2 |F2 A2 B2 A2 | (F2 B2 A2 F2) |E4 D4 |
w: And from  stee-ple bid good peo-ple Come a-dore the new----born King.
D2 F2 A4 |GABc A4 | d2 c2 A2 F2 |GF E2 D4 :|
w: Ding-dong-ding: Ding-a-dong-a-ding: Ding-dong, ding-dong: Ding-a-dong ding. 
